css/assets/logos/atui.svg

<?xml version="1.0" encoding="UTF-8"?>
<svg width="161px" height="160px" viewBox="0 0 161 160" version="1.1" xmlns="http://www.w3.org/2000/svg" xmlns:xlink="http://www.w3.org/1999/xlink">
    <!-- Generator: Sketch 44.1 (41455) - http://www.bohemiancoding.com/sketch -->
    <title>a copy 4</title>
    <desc>Created with Sketch.</desc>
    <defs>
        <linearGradient x1="22.5170547%" y1="8.01121418%" x2="96.9400333%" y2="96.3671667%" id="linearGradient-1">
            <stop stop-color="#66C7FF" offset="0%"></stop>
            <stop stop-color="#3473E7" offset="100%"></stop>
        </linearGradient>
    </defs>
    <g id="Page-1" stroke="none" stroke-width="1" fill="none" fill-rule="evenodd">
        <g id="Desktop-HD-Copy-2" transform="translate(-640.000000, -245.000000)" fill="url(#linearGradient-1)">
            <path d="M801,245 L801,405 L718.862712,405 C704.67281,404.638416 691.529157,400.841844 679.431356,393.610169 C667.333555,386.378495 657.737324,376.706275 650.642373,364.59322 C643.547422,352.299374 640,339.101765 640,325 C640,310.536651 643.592902,297.158254 650.778814,284.864407 C657.964725,272.57056 667.742876,262.807946 680.113559,255.576271 C692.484243,248.525388 705.946255,245 720.5,245 C729.414169,245 738.009846,246.355919 746.287288,249.067797 C754.564731,251.779675 762.068893,255.666641 768.8,260.728814 L768.8,245 L801,245 Z M768.8,325 C768.8,318.672285 767.572046,312.570651 765.116102,306.694915 C762.660157,300.81918 759.158215,295.621492 754.610169,291.101695 C750.062124,286.581898 744.83195,283.101707 738.919492,280.661017 C733.007033,278.220327 726.867263,277 720.5,277 C707.765473,277 696.39553,281.700518 686.389831,291.101695 C681.841785,295.621492 678.385323,300.81918 676.020339,306.694915 C673.655355,312.570651 672.472881,318.672285 672.472881,325 C672.472881,337.836222 677.111818,349.135544 686.389831,358.898305 C696.213608,368.11869 707.583551,372.728814 720.5,372.728814 L768.8,372.728814 L768.8,325 Z" id="a-copy-4"></path>
        </g>
    </g>
</svg>

<svg width="161" height="160" xmlns="http://www.w3.org/2000/svg"><defs><linearGradient x1="22.517%" y1="8.011%" x2="96.94%" y2="96.367%" id="a"><stop stop-color="#66C7FF" offset="0%"/><stop stop-color="#3473E7" offset="100%"/></linearGradient></defs><path d="M801 245v160h-82.137c-14.19-.362-27.334-4.158-39.432-11.39-12.097-7.232-21.694-16.904-28.789-29.017C643.547 352.3 640 339.102 640 325c0-14.463 3.593-27.842 10.779-40.136 7.186-12.293 16.964-22.056 29.335-29.288C692.484 248.526 705.946 245 720.5 245c8.914 0 17.51 1.356 25.787 4.068 8.278 2.712 15.782 6.599 22.513 11.66V245H801zm-32.2 80c0-6.328-1.228-12.43-3.684-18.305-2.456-5.876-5.958-11.074-10.506-15.593-4.548-4.52-9.778-8-15.69-10.441-5.913-2.44-12.053-3.661-18.42-3.661-12.735 0-24.104 4.7-34.11 14.102-4.548 4.52-8.005 9.717-10.37 15.593A48.582 48.582 0 0 0 672.473 325c0 12.836 4.639 24.136 13.917 33.898 9.824 9.22 21.194 13.83 34.11 13.83h48.3V325z" transform="translate(-640 -245)" fill="url(#a)" fill-rule="evenodd"/></svg>
